X:12707
T:Paddy the Piper Reel
M:2/4
L:1/16
K:Em
BEEB dcdB|A2(3FED FAAd|BEEF GABc|dBAc BEE2|!
BEEB dcdB|A2(3FED FAAd|BEEF GABc|dBAc BEE2:|!
|:e3f gfge|defg afd2|e^def gfe^c|dBAc BEE2|!
e^def gfe^c|defg afdf|gefd ecdA|(3BcdAc BEE2:|!
